X:1
T:[ID 1-120a]
T:[ID 1-120a]
T:Bezeichnung standardisiert: Menuet [mit Trio] Aria
T:Urheber unbekannt Datum in der hier transkribierten schriftlichen Quelle: vermutlich vor 1767
C:Urheber unbekannt
C:Datum in der hier transkribierten schriftlichen Quelle: vermutlich vor 1767
L:1/8
M:3/4
K:A
V:1 treble 
V:1
 A2 c2 A2 | e4 f/g/a | ga b2 d2 | c2{B} A4 | A2 c2 A2 | a4 A2 | GA B2 A2 |{A} B6 :: B2 B2 G2 | %9
 E4 e2 | d4 c2 | B6 | A2 c2 A2 | a4 d2 | (c/B/)A TB4 |{B} A6 :| %16

